X:1
T:Title
%%score { ( 1 4 ) | ( 2 3 ) }
L:1/8
Q:1/4=100
M:3/4
K:Ab
V:1 treble nm="Grand Piano"
V:4 treble 
V:2 bass 
V:3 bass 
V:1
 [CE]2 [CE]2 [CE]2 | [CE]2 F2 [A,B,G]2 | [A,CA]2 [DB]2 [=D_c]2 | [Ec]4 [CA]2 | [FA]2 [EG]2 [DF]2 | %5
w: Joseph~Martine * *|||||
 d2 c2 [FB]2 | G2 A2 =A2 | B6 | [Cc]2 [Ec]2 [Ac]2 | [_Ge]2 [Fd]2 c2 | A4[K:bass][K:treble] z2 | %11
w: ||||||
 [Cc]4 [CA]2 | [FA]2 [EG]2 F2 | E4 A2 | B4 c2 | [CA]6 | F2 F2 F2 | [FA]2 [EG]2 [DF]2 | %18
w: |||||||
 [CE]4 [CA]2 | [Ec]6 | d2 c2 [B,FB]2 | A4 z2 | c4 z2 |[M:7/4] [CA]6 z2 z2 z4 |[M:3/4] [DA]6 | %25
w: |||||||
 [CA]6 |] %26
w: |
V:2
 [A,,A,]2 [A,,A,]2 [A,,A,]2 | z2 D2 A,,2 | z2 G,2 [A,,F,]2 | [A,,E,]4 [A,,A,]2 | %4
 [D,A,]2 [D,A,]2 [D,A,]2 | [B,,B,]2 [C,A,]2 [D,B,]2 | B,2 z2 z2 | [E,G,D]6 | %8
 [A,,A,]2 [A,,A,]2 [A,,A,]2 | A,4 z2 | [A,=D]4 [E,G,_D]2 | [A,,A,]4 [A,,A,]2 | %12
 [D,A,]2 [D,A,]2 [D,A,D]2 | [E,A,C]4 [E,A,C]2 | [E,G,D]4 [E,G,E]2 | [A,,A,]6 | %16
 [D,A,D]2 [D,A,D]2 [D,A,D]2 | [D,A,]4 [D,A,]2 | [A,,A,]4 [A,,A,]2 | [A,,A,]6 | A,2 z2 z2 | %21
 z2 B,2 [E,A,C]2 | [E,E]4 [E,G,D]2 |[M:7/4] [A,,A,]6 z2 z2 z4 |[M:3/4] [D,F,]6 | [A,,E,A,]6 |] %26
V:3
 x6 | [A,,A,]4 z2 | A,,4 z2 | x6 | x6 | x6 | [E,E]2- [E,F,E]2 [E,_G,C]2 | x6 | x6 | %9
 C,2 D,2 [E,A,E]2 | F,2 z2 z2 | x6 | x6 | x6 | x6 | x6 | x6 | x6 | x6 | x6 | D,2- [D,=A,]2 D,2 | %21
 E,4 z2 | A,2 z2 z2 |[M:7/4] x14 |[M:3/4] x6 | x6 |] %26
V:4
 x6 | x6 | x6 | x6 | x6 | F4 z2 | x6 | x6 | x6 | x6 | z2[K:bass] B,,2[K:treble] B2 | x6 | x6 | x6 | %14
 x6 | x6 | x6 | x6 | x6 | x6 | F4 z2 | [CE]2 D2 E2 | z2 F,2 B2 |[M:7/4] x14 |[M:3/4] x6 | x6 |] %26

